;Sliced by ideaMaker 3.6.1.4415, 2022-04-14 15:24:10 UTC+1000
;Dimension: 235.000 235.000 250.000 0.400
;Plate Shape: 0
;Extruder Offset #1: 25.000 0.000
;Filament Diameter #1: 1.750
;Filament Diameter #2: 1.750
;Filament Compensation #1: 100.00
;Filament Compensation #2: 90.00
;Filament Density #1: 1240.00
;Filament Density #2: 1240.00
;Bounding Box: 40.482 89.813 88.708 123.602 0.000 0.800
;Model Gap: 0.000
M221 T0 S100.00
M140 S60.00
M104 T0 S205.00
M109 T0 S205.00
T0
M190 S60.00
; Ender 3 Custom Start G-code
G92 E0 ; Reset Extruder
G28 ; Home all axes
G1 Z2.0 F3000 ; Move Z Axis up little to prevent scratching of Heat Bed
G1 X0.1 Y20 Z0.3 F5000.0 ; Move to start position
G1 X0.1 Y200.0 Z0.3 F1500.0 E15 ; Draw the first line
G1 X0.4 Y200.0 Z0.3 F5000.0 ; Move to side a little
G1 X0.4 Y20 Z0.3 F1500.0 E30 ; Draw the second line
G92 E0 ; Reset Extruder
G1 Z2.0 F3000 ; Move Z Axis up little to prevent scratching of Heat Bed
G1 X5 Y20 Z2.0 F5000.0 ; Move over to prevent blob squish
M1001
;LAYER:0
;Z:0.200
;HEIGHT:0.200
M106 S255
G4 P500
M106 S64
G1 F3000 E-5.0000
G0 F4200 X53.092 Y89.395
G0 F1800 Z0.200
;TYPE:WALL-INNER
;WIDTH:0.400
G1 F1500 E0.0000
G1 F1200 X53.117 Y89.505 E0.0038
G1 X53.119 Y93.920 E0.1506
G1 X53.054 Y94.085 E0.1565
G1 X52.911 Y94.127 E0.1615
G1 X48.507 Y94.127 E0.3079
G1 X48.351 Y94.074 E0.3134
G1 X48.315 Y94.020 E0.3156
G1 X48.301 Y89.514 E0.4654
G1 X48.366 Y89.351 E0.4713
G1 X48.509 Y89.308 E0.4762
G1 X52.910 Y89.308 E0.6226
G1 X52.919 Y89.310 E0.6229
G0 F1200 X53.023 Y89.331
G0 F1200 X53.092 Y89.395
G1 F3000 E-4.3771
G1 F1800 Z0.700
G0 F4200 X53.466 Y89.235
;TYPE:WALL-OUTER
;WIDTH:0.400
G1 F1800 Z0.200
G1 F1500 E0.6229
G1 F1200 X53.517 Y89.461 E0.6306
G1 X53.519 Y93.958 E0.7802
G1 X53.479 Y94.169 E0.7873
G1 X53.342 Y94.374 E0.7955
G1 X53.179 Y94.481 E0.8020
G1 X52.949 Y94.527 E0.8098
G1 X48.471 Y94.527 E0.9588
G1 X48.242 Y94.482 E0.9665
G1 X48.064 Y94.363 E0.9737
G1 X47.948 Y94.192 E0.9805
G1 X47.915 Y94.091 E0.9841
G1 X47.901 Y89.476 E1.1376
G1 X47.941 Y89.266 E1.1447
G1 X48.078 Y89.062 E1.1528
G1 X48.241 Y88.954 E1.1593
G1 X48.471 Y88.908 E1.1671
G1 X52.949 Y88.908 E1.3161
G1 X53.178 Y88.954 E1.3239
G1 X53.353 Y89.071 E1.3309
G0 F1200 X53.357 Y89.073
G0 F1200 X53.466 Y89.235
G0 F600 X53.511 Y89.431
G0 F600 X53.517 Y89.461
G0 F600 X53.517 Y89.630
G1 F3000 E-3.6691
G1 F1800 Z0.700
G0 F4200 X52.838 Y93.600
;TYPE:SOLID-FILL
;WIDTH:0.400
G1 F1800 Z0.200
G1 F1500 E1.3309
G1 F1200 X48.592 Y93.600 E1.4721
G1 X48.591 Y93.200 E1.4854
G1 X52.838 Y93.200 E1.6266
G1 X52.838 Y92.800 E1.6399
G1 X48.590 Y92.800 E1.7812
G1 X48.588 Y92.400 E1.7945
G1 X52.838 Y92.400 E1.9359
G1 X52.838 Y92.000 E1.9492
G1 X48.587 Y92.000 E2.0906
G1 X48.586 Y91.600 E2.1039
G1 X52.837 Y91.600 E2.2453
G1 X52.837 Y91.200 E2.2586
G1 X48.585 Y91.200 E2.4000
G1 X48.584 Y90.800 E2.4133
G1 X52.837 Y90.800 E2.5548
G1 X52.837 Y90.400 E2.5681
G1 X48.583 Y90.400 E2.7096
G1 X48.582 Y90.000 E2.7229
G1 X52.837 Y90.000 E2.8644
G1 X52.837 Y89.600 E2.8777
G1 X48.781 Y89.600 E3.0126
G0 F1200 X48.581 Y89.600
G1 F3000 E-1.9874
G1 F1800 Z0.700
G0 F4200 X45.874 Y96.617
;TYPE:WALL-INNER
;WIDTH:0.400
G1 F1800 Z0.200
G1 F1500 E3.0126
G1 F1200 X45.899 Y96.726 E3.0163
G1 X45.901 Y101.136 E3.1630
G1 X45.834 Y101.305 E3.1690
G1 X45.695 Y101.346 E3.1739
G1 X41.307 Y101.346 E3.3198
G1 X41.142 Y101.300 E3.3255
G1 X41.096 Y101.217 E3.3286
G1 X41.082 Y96.733 E3.4778
G1 X41.147 Y96.570 E3.4836
G1 X41.290 Y96.527 E3.4886
G1 X45.695 Y96.527 E3.6351
G1 X45.704 Y96.529 E3.6354
G0 F1200 X45.803 Y96.548
G0 F1200 X45.874 Y96.617
G1 F3000 E-1.3646
G1 F1800 Z0.700
G0 F4200 X46.247 Y96.454
;TYPE:WALL-OUTER
;WIDTH:0.400
G1 F1800 Z0.200
G1 F1500 E3.6354
G1 F1200 X46.299 Y96.681 E3.6432
G1 X46.301 Y101.177 E3.7927
G1 X46.260 Y101.387 E3.7998
G1 X46.123 Y101.593 E3.8080
G1 X45.960 Y101.701 E3.8145
G1 X45.731 Y101.746 E3.8223
G1 X41.252 Y101.746 E3.9713
G1 X40.935 Y101.657 E3.9822
G1 X40.788 Y101.513 E3.9891
G1 X40.696 Y101.300 E3.9968
G1 X40.682 Y96.695 E4.1500
G1 X40.722 Y96.485 E4.1571
G1 X40.859 Y96.281 E4.1652
G1 X41.022 Y96.173 E4.1717
G1 X41.252 Y96.127 E4.1795
G1 X45.731 Y96.127 E4.3285
G1 X45.960 Y96.172 E4.3363
G1 X46.134 Y96.289 E4.3432
G0 F1200 X46.137 Y96.291
G0 F1200 X46.247 Y96.454
G0 F600 X46.292 Y96.650
G0 F600 X46.299 Y96.681
G0 F600 X46.299 Y96.849
G1 F3000 E-0.6568
G1 F1800 Z0.700
G0 F4200 X45.619 Y97.200
;TYPE:SOLID-FILL
;WIDTH:0.400
G1 F1800 Z0.200
G1 F1500 E4.3432
G1 F1200 X41.363 Y97.200 E4.4848
G1 X41.364 Y97.600 E4.4981
G1 X45.619 Y97.600 E4.6396
G1 X45.619 Y98.000 E4.6529
G1 X41.365 Y98.000 E4.7944
G1 X41.366 Y98.400 E4.8077
G1 X45.619 Y98.400 E4.9492
G1 X45.619 Y98.800 E4.9625
G1 X41.367 Y98.800 E5.1039
G1 X41.368 Y99.200 E5.1172
G1 X45.620 Y99.200 E5.2586
G1 X45.620 Y99.600 E5.2719
G1 X41.369 Y99.600 E5.4133
G1 X41.370 Y100.000 E5.4266
G1 X45.620 Y100.000 E5.5680
G1 X45.620 Y100.400 E5.5813
G1 X41.372 Y100.400 E5.7226
G1 X41.373 Y100.800 E5.7359
G1 X45.420 Y100.800 E5.8705
G0 F1200 X45.620 Y100.800
G1 F3000 E0.8705
G1 F1800 Z0.700
G0 F4200 X45.874 Y103.836
;TYPE:WALL-INNER
;WIDTH:0.400
G1 F1800 Z0.200
G1 F1500 E5.8705
G1 F1200 X45.899 Y103.945 E5.8742
G1 X45.901 Y108.355 E6.0209
G1 X45.834 Y108.524 E6.0269
G1 X45.695 Y108.565 E6.0318
G1 X41.288 Y108.565 E6.1783
G1 X41.130 Y108.509 E6.1839
G1 X41.096 Y108.459 E6.1859
G1 X41.082 Y103.952 E6.3358
G1 X41.147 Y103.789 E6.3417
G1 X41.290 Y103.746 E6.3466
G1 X45.695 Y103.746 E6.4931
G1 X45.704 Y103.748 E6.4934
G0 F1200 X45.803 Y103.767
G0 F1200 X45.874 Y103.836
G1 F3000 E1.4934
G1 F1800 Z0.700
G0 F4200 X46.247 Y103.673
;TYPE:WALL-OUTER
;WIDTH:0.400
G1 F1800 Z0.200
G1 F1500 E6.4934
G1 F1200 X46.299 Y103.900 E6.5012
G1 X46.301 Y108.396 E6.6507
G1 X46.260 Y108.606 E6.6578
G1 X46.123 Y108.812 E6.6661
G1 X45.960 Y108.920 E6.6726
G1 X45.731 Y108.965 E6.6803
G1 X41.252 Y108.965 E6.8293
G1 X41.023 Y108.920 E6.8371
G1 X40.845 Y108.800 E6.8442
G1 X40.729 Y108.630 E6.8511
G1 X40.696 Y108.529 E6.8546
G1 X40.682 Y103.914 E7.0081
G1 X40.722 Y103.704 E7.0152
G1 X40.859 Y103.500 E7.0234
G1 X41.022 Y103.392 E7.0299
G1 X41.252 Y103.346 E7.0377
G1 X45.731 Y103.346 E7.1866
G1 X45.960 Y103.391 E7.1944
G1 X46.134 Y103.508 E7.2014
G0 F1200 X46.137 Y103.510
G0 F1200 X46.247 Y103.673
G0 F600 X46.292 Y103.869
G0 F600 X46.299 Y103.900
G0 F600 X46.299 Y104.068
G1 F3000 E2.2014
G1 F1800 Z0.700
G0 F4200 X45.619 Y104.400
;TYPE:SOLID-FILL
;WIDTH:0.400
G1 F1800 Z0.200
G1 F1500 E7.2014
G1 F1200 X41.363 Y104.400 E7.3429
G1 X41.364 Y104.800 E7.3562
G1 X45.619 Y104.800 E7.4978
G1 X45.619 Y105.200 E7.5111
G1 X41.365 Y105.200 E7.6526
G1 X41.366 Y105.600 E7.6659
G1 X45.619 Y105.600 E7.8073
G1 X45.619 Y106.000 E7.8206
G1 X41.367 Y106.000 E7.9620
G1 X41.368 Y106.400 E7.9753
G1 X45.620 Y106.400 E8.1168
G1 X45.620 Y106.800 E8.1301
G1 X41.369 Y106.800 E8.2715
G1 X41.370 Y107.200 E8.2848
G1 X45.620 Y107.200 E8.4261
G1 X45.620 Y107.600 E8.4394
G1 X41.372 Y107.600 E8.5807
G1 X41.373 Y108.000 E8.5940
G1 X45.420 Y108.000 E8.7286
G0 F1200 X45.620 Y108.000
G1 F3000 E3.7286
G1 F1800 Z0.700
G0 F4200 X45.874 Y111.055
;TYPE:WALL-INNER
;WIDTH:0.400
G1 F1800 Z0.200
G1 F1500 E8.7286
G1 F1200 X45.899 Y111.164 E8.7323
G1 X45.901 Y115.574 E8.8790
G1 X45.835 Y115.741 E8.8850
G1 X45.693 Y115.783 E8.8899
G1 X41.288 Y115.783 E9.0364
G1 X41.132 Y115.730 E9.0419
G1 X41.096 Y115.676 E9.0441
G1 X41.082 Y111.171 E9.1939
G1 X41.147 Y111.007 E9.1998
G1 X41.290 Y110.965 E9.2047
G1 X45.695 Y110.965 E9.3512
G1 X45.704 Y110.967 E9.3515
G0 F1200 X45.803 Y110.986
G0 F1200 X45.874 Y111.055
G1 F3000 E4.3515
G1 F1800 Z0.700
G0 F4200 X46.247 Y110.892
;TYPE:WALL-OUTER
;WIDTH:0.400
G1 F1800 Z0.200
G1 F1500 E9.3515
G1 F1200 X46.299 Y111.119 E9.3593
G1 X46.301 Y115.614 E9.5088
G1 X46.260 Y115.825 E9.5159
G1 X46.123 Y116.030 E9.5241
G1 X45.961 Y116.137 E9.5306
G1 X45.731 Y116.183 E9.5384
G1 X41.252 Y116.183 E9.6874
G1 X41.023 Y116.138 E9.6951
G1 X40.845 Y116.019 E9.7023
G1 X40.729 Y115.848 E9.7091
G1 X40.696 Y115.747 E9.7127
G1 X40.682 Y111.133 E9.8661
G1 X40.722 Y110.923 E9.8732
G1 X40.859 Y110.718 E9.8814
G1 X41.022 Y110.611 E9.8879
G1 X41.252 Y110.565 E9.8957
G1 X45.731 Y110.565 E10.0447
G1 X45.960 Y110.610 E10.0525
G1 X46.134 Y110.727 E10.0594
G0 F1200 X46.137 Y110.729
G0 F1200 X46.247 Y110.892
G0 F600 X46.292 Y111.088
G0 F600 X46.299 Y111.119
G0 F600 X46.299 Y111.287
G1 F3000 E5.0594
G1 F1800 Z0.700
G0 F4200 X45.619 Y111.600
;TYPE:SOLID-FILL
;WIDTH:0.400
G1 F1800 Z0.200
G1 F1500 E10.0594
G1 F1200 X41.363 Y111.600 E10.2010
G1 X41.364 Y112.000 E10.2143
G1 X45.619 Y112.000 E10.3558
G1 X45.619 Y112.400 E10.3691
G1 X41.365 Y112.400 E10.5106
G1 X41.366 Y112.800 E10.5239
G1 X45.619 Y112.800 E10.6654
G1 X45.619 Y113.200 E10.6787
G1 X41.367 Y113.200 E10.8201
G1 X41.368 Y113.600 E10.8334
G1 X45.620 Y113.600 E10.9748
G1 X45.620 Y114.000 E10.9881
G1 X41.369 Y114.000 E11.1295
G1 X41.370 Y114.400 E11.1428
G1 X45.620 Y114.400 E11.2842
G1 X45.620 Y114.800 E11.2975
G1 X41.372 Y114.800 E11.4388
G1 X41.373 Y115.200 E11.4521
G1 X45.420 Y115.200 E11.5867
G0 F1200 X45.620 Y115.200
G1 F3000 E6.5867
G1 F1800 Z0.700
G0 F4200 X53.093 Y118.271
;TYPE:WALL-INNER
;WIDTH:0.400
G1 F1800 Z0.200
G1 F1500 E11.5867
G1 F1200 X53.117 Y118.380 E11.5904
G1 X53.119 Y122.796 E11.7373
G1 X53.072 Y122.942 E11.7424
G1 X52.911 Y123.002 E11.7481
G1 X48.507 Y123.002 E11.8946
G1 X48.352 Y122.949 E11.9000
G1 X48.303 Y122.805 E11.9051
G1 X48.301 Y118.391 E12.0519
G1 X48.358 Y118.225 E12.0577
G1 X48.483 Y118.183 E12.0621
G1 X52.910 Y118.183 E12.2093
G1 X52.920 Y118.185 E12.2097
G0 F1200 X53.023 Y118.206
G0 F1200 X53.093 Y118.271
G1 F3000 E7.2097
G1 F1800 Z0.700
G0 F4200 X53.466 Y118.110
;TYPE:WALL-OUTER
;WIDTH:0.400
G1 F1800 Z0.200
G1 F1500 E12.2097
G1 F1200 X53.517 Y118.336 E12.2174
G1 X53.519 Y122.833 E12.3670
G1 X53.479 Y123.046 E12.3742
G1 X53.365 Y123.227 E12.3813
G1 X53.176 Y123.357 E12.3889
G1 X52.949 Y123.402 E12.3966
G1 X48.471 Y123.402 E12.5455
G1 X48.242 Y123.357 E12.5533
G1 X48.064 Y123.238 E12.5604
G1 X47.954 Y123.075 E12.5670
G1 X47.903 Y122.849 E12.5747
G1 X47.901 Y118.353 E12.7242
G1 X47.947 Y118.123 E12.7320
G1 X48.060 Y117.951 E12.7389
G1 X48.140 Y117.883 E12.7423
G1 X48.354 Y117.794 E12.7501
G1 X48.461 Y117.783 E12.7536
G1 X52.949 Y117.783 E12.9029
G1 X53.178 Y117.829 E12.9107
G1 X53.353 Y117.946 E12.9177
G0 F1200 X53.357 Y117.948
G0 F1200 X53.466 Y118.110
G0 F600 X53.511 Y118.306
G0 F600 X53.517 Y118.336
G0 F600 X53.517 Y118.505
G1 F3000 E7.9177
G1 F1800 Z0.700
G0 F4200 X52.837 Y118.800
;TYPE:SOLID-FILL
;WIDTH:0.400
G1 F1800 Z0.200
G1 F1500 E12.9177
G1 F1200 X48.580 Y118.800 E13.0593
G1 X48.580 Y119.200 E13.0726
G1 X52.837 Y119.200 E13.2142
G1 X52.837 Y119.600 E13.2275
G1 X48.580 Y119.600 E13.3690
G1 X48.580 Y120.000 E13.3824
G1 X52.837 Y120.000 E13.5239
G1 X52.837 Y120.400 E13.5372
G1 X48.580 Y120.400 E13.6788
G1 X48.581 Y120.800 E13.6921
G1 X52.838 Y120.800 E13.8337
G1 X52.838 Y121.200 E13.8470
G1 X48.581 Y121.200 E13.9886
G1 X48.581 Y121.600 E14.0019
G1 X52.838 Y121.600 E14.1435
G1 X52.838 Y122.000 E14.1568
G1 X48.581 Y122.000 E14.2984
G1 X48.581 Y122.400 E14.3117
G1 X52.638 Y122.400 E14.4466
G0 F1200 X52.838 Y122.400
G1 F3000 E9.4466
G1 F1800 Z0.700
G0 F4200 X67.531 Y111.055
;TYPE:WALL-INNER
;WIDTH:0.400
G1 F1800 Z0.200
G1 F1500 E14.4466
G1 F1200 X67.555 Y111.162 E14.4503
G1 X67.557 Y115.576 E14.5971
G1 X67.492 Y115.740 E14.6030
G1 X67.349 Y115.783 E14.6079
G1 X62.963 Y115.783 E14.7538
G1 X62.798 Y115.737 E14.7595
G1 X62.752 Y115.654 E14.7627
G1 X62.738 Y111.171 E14.9118
G1 X62.803 Y111.008 E14.9176
G1 X62.946 Y110.965 E14.9226
G1 X67.351 Y110.965 E15.0691
G1 X67.360 Y110.967 E15.0694
G0 F1200 X67.459 Y110.986
G0 F1200 X67.531 Y111.055
G1 F3000 E10.0694
G1 F1800 Z0.700
G0 F4200 X67.904 Y110.892
;TYPE:WALL-OUTER
;WIDTH:0.400
G1 F1800 Z0.200
G1 F1500 E15.0694
G1 F1200 X67.955 Y111.118 E15.0771
G1 X67.957 Y115.614 E15.2266
G1 X67.917 Y115.825 E15.2338
G1 X67.779 Y116.030 E15.2420
G1 X67.617 Y116.137 E15.2485
G1 X67.387 Y116.183 E15.2563
G1 X62.908 Y116.183 E15.4052
G1 X62.591 Y116.094 E15.4162
G1 X62.444 Y115.950 E15.4230
G1 X62.352 Y115.738 E15.4307
G1 X62.338 Y111.133 E15.5839
G1 X62.378 Y110.923 E15.5910
G1 X62.516 Y110.718 E15.5992
G1 X62.678 Y110.611 E15.6057
G1 X62.908 Y110.565 E15.6135
G1 X67.387 Y110.565 E15.7624
G1 X67.616 Y110.610 E15.7702
G1 X67.791 Y110.728 E15.7772
G0 F1200 X67.793 Y110.729
G0 F1200 X67.904 Y110.892
G0 F600 X67.949 Y111.088
G0 F600 X67.955 Y111.118
G0 F600 X67.955 Y111.287
G1 F3000 E10.7772
G1 F1800 Z0.700
G0 F4200 X67.276 Y111.600
;TYPE:SOLID-FILL
;WIDTH:0.400
G1 F1800 Z0.200
G1 F1500 E15.7772
G1 F1200 X63.019 Y111.600 E15.9188
G1 X63.020 Y112.000 E15.9321
G1 X67.276 Y112.000 E16.0737
G1 X67.276 Y112.400 E16.0870
G1 X63.021 Y112.400 E16.2285
G1 X63.022 Y112.800 E16.2418
G1 X67.276 Y112.800 E16.3833
G1 X67.276 Y113.200 E16.3966
G1 X63.023 Y113.200 E16.5380
G1 X63.024 Y113.600 E16.5513
G1 X67.277 Y113.600 E16.6928
G1 X67.277 Y114.000 E16.7061
G1 X63.025 Y114.000 E16.8475
G1 X63.026 Y114.400 E16.8608
G1 X67.277 Y114.400 E17.0022
G1 X67.277 Y114.800 E17.0155
G1 X63.028 Y114.800 E17.1568
G1 X63.029 Y115.200 E17.1702
G1 X67.077 Y115.200 E17.3048
G0 F1200 X67.277 Y115.200
G1 F3000 E12.3048
G1 F1800 Z0.700
G0 F4200 X67.531 Y103.836
;TYPE:WALL-INNER
;WIDTH:0.400
G1 F1800 Z0.200
G1 F1500 E17.3048
G1 F1200 X67.555 Y103.943 E17.3084
G1 X67.557 Y108.358 E17.4553
G1 X67.492 Y108.522 E17.4611
G1 X67.351 Y108.565 E17.4661
G1 X62.944 Y108.565 E17.6126
G1 X62.791 Y108.513 E17.6180
G1 X62.752 Y108.456 E17.6203
G1 X62.738 Y103.952 E17.7701
G1 X62.803 Y103.789 E17.7759
G1 X62.944 Y103.746 E17.7808
G1 X67.351 Y103.746 E17.9274
G1 X67.360 Y103.748 E17.9277
G0 F1200 X67.459 Y103.767
G0 F1200 X67.531 Y103.836
G1 F3000 E12.9277
G1 F1800 Z0.700
G0 F4200 X67.904 Y103.673
;TYPE:WALL-OUTER
;WIDTH:0.400
G1 F1800 Z0.200
G1 F1500 E17.9277
G1 F1200 X67.955 Y103.899 E17.9354
G1 X67.957 Y108.396 E18.0850
G1 X67.917 Y108.606 E18.0921
G1 X67.779 Y108.811 E18.1003
G1 X67.616 Y108.920 E18.1069
G1 X67.387 Y108.965 E18.1146
G1 X62.908 Y108.965 E18.2636
G1 X62.679 Y108.920 E18.2714
G1 X62.502 Y108.800 E18.2785
G1 X62.385 Y108.630 E18.2853
G1 X62.352 Y108.529 E18.2889
G1 X62.338 Y103.914 E18.4424
G1 X62.378 Y103.705 E18.4494
G1 X62.516 Y103.500 E18.4577
G1 X62.679 Y103.391 E18.4642
G1 X62.908 Y103.346 E18.4719
G1 X67.387 Y103.346 E18.6209
G1 X67.616 Y103.391 E18.6287
G1 X67.790 Y103.509 E18.6357
G0 F1200 X67.793 Y103.511
G0 F1200 X67.904 Y103.673
G0 F600 X67.949 Y103.869
G0 F600 X67.955 Y103.899
G0 F600 X67.955 Y104.068
G1 F3000 E13.6357
G1 F1800 Z0.700
G0 F4200 X67.276 Y104.400
;TYPE:SOLID-FILL
;WIDTH:0.400
G1 F1800 Z0.200
G1 F1500 E18.6357
G1 F1200 X63.019 Y104.400 E18.7773
G1 X63.020 Y104.800 E18.7906
G1 X67.276 Y104.800 E18.9321
G1 X67.276 Y105.200 E18.9454
G1 X63.021 Y105.200 E19.0869
G1 X63.022 Y105.600 E19.1002
G1 X67.276 Y105.600 E19.2417
G1 X67.276 Y106.000 E19.2550
G1 X63.023 Y106.000 E19.3965
G1 X63.024 Y106.400 E19.4098
G1 X67.277 Y106.400 E19.5513
G1 X67.277 Y106.800 E19.5646
G1 X63.025 Y106.800 E19.7060
G1 X63.026 Y107.200 E19.7193
G1 X67.277 Y107.200 E19.8607
G1 X67.277 Y107.600 E19.8740
G1 X63.028 Y107.600 E20.0153
G1 X63.029 Y108.000 E20.0286
G1 X67.077 Y108.000 E20.1632
G0 F1200 X67.277 Y108.000
G1 F3000 E15.1632
G1 F1800 Z0.700
G0 F4200 X74.749 Y103.836
;TYPE:WALL-INNER
;WIDTH:0.400
G1 F1800 Z0.200
G1 F1500 E20.1632
G1 F1200 X74.774 Y103.945 E20.1670
G1 X74.776 Y108.356 E20.3137
G1 X74.726 Y108.507 E20.3190
G1 X74.568 Y108.565 E20.3246
G1 X70.163 Y108.565 E20.4711
G1 X70.007 Y108.511 E20.4766
G1 X69.959 Y108.368 E20.4816
G1 X69.957 Y103.954 E20.6284
G1 X70.015 Y103.787 E20.6343
G1 X70.132 Y103.746 E20.6384
G1 X74.570 Y103.746 E20.7860
G1 X74.579 Y103.748 E20.7863
G0 F1200 X74.678 Y103.767
G0 F1200 X74.749 Y103.836
G1 F3000 E15.7863
G1 F1800 Z0.700
G0 F4200 X75.122 Y103.673
;TYPE:WALL-OUTER
;WIDTH:0.400
G1 F1800 Z0.200
G1 F1500 E20.7863
G1 F1200 X75.174 Y103.900 E20.7941
G1 X75.176 Y108.396 E20.9436
G1 X75.135 Y108.609 E20.9508
G1 X75.021 Y108.789 E20.9579
G1 X74.833 Y108.920 E20.9655
G1 X74.606 Y108.965 E20.9732
G1 X70.127 Y108.965 E21.1222
G1 X69.898 Y108.920 E21.1299
